ksmif.org/public/images/icon/book.svg

<svg width="41" height="41" viewBox="0 0 41 41" fill="none" xmlns="http://www.w3.org/2000/svg">
<path d="M12.6124 36.9966C10.9868 36.9966 9.59941 36.422 8.45027 35.2729C7.30113 34.1238 6.72656 32.7364 6.72656 31.1108V9.24911C6.72656 7.6235 7.30113 6.23613 8.45027 5.08699C9.59941 3.93785 10.9868 3.36328 12.6124 3.36328H33.6332V28.5883C32.9325 28.5883 32.3369 28.8335 31.8465 29.324C31.356 29.8145 31.1107 30.4101 31.1107 31.1108C31.1107 31.8115 31.356 32.4071 31.8465 32.8976C32.3369 33.388 32.9325 33.6333 33.6332 33.6333V36.9966H12.6124ZM10.0899 25.7715C10.4823 25.5753 10.8887 25.4352 11.3091 25.3511C11.7295 25.267 12.164 25.225 12.6124 25.225H13.4532V6.72661H12.6124C11.9117 6.72661 11.3161 6.97186 10.8256 7.46234C10.3351 7.95283 10.0899 8.54842 10.0899 9.24911V25.7715ZM16.8166 25.225H30.2699V6.72661H16.8166V25.225ZM12.6124 33.6333H28.2939C28.1258 33.2409 27.9926 32.8415 27.8945 32.4351C27.7964 32.0287 27.7474 31.5873 27.7474 31.1108C27.7474 30.6623 27.7894 30.2279 27.8735 29.8075C27.9576 29.3871 28.0977 28.9807 28.2939 28.5883H12.6124C11.8837 28.5883 11.2811 28.8335 10.8046 29.324C10.3281 29.8145 10.0899 30.4101 10.0899 31.1108C10.0899 31.8395 10.3281 32.4421 10.8046 32.9186C11.2811 33.395 11.8837 33.6333 12.6124 33.6333Z" fill="black"/>
</svg>

<svg xmlns="http://www.w3.org/2000/svg" width="41" height="41" fill="none"><path fill="#000" d="M12.612 36.997q-2.438 0-4.162-1.724-1.723-1.725-1.723-4.162V9.249q0-2.439 1.723-4.162 1.725-1.724 4.162-1.724h21.021v25.225q-1.05 0-1.787.736a2.43 2.43 0 0 0-.735 1.787q0 1.05.735 1.787.735.735 1.787.735v3.364zM10.09 25.772a4.8 4.8 0 0 1 1.22-.42 6.6 6.6 0 0 1 1.302-.127h.841V6.727h-.84q-1.052 0-1.787.735a2.43 2.43 0 0 0-.736 1.787zm6.727-.547H30.27V6.727H16.817zm-4.205 8.408h15.682a7.5 7.5 0 0 1-.4-1.198 5.6 5.6 0 0 1-.147-1.324q0-.673.127-1.303.126-.63.42-1.22H12.612q-1.092 0-1.807.736a2.47 2.47 0 0 0-.715 1.787q0 1.093.715 1.808.714.714 1.807.714"/></svg>
